X:2068
T:Trumpet Reel
S:George Wilson
L:1/16
M:2/4
R:reel
Z:<http://tunes.nhcountrydance.com>.
K:Eb
CD\
|: "Eb" E2E/2E/2E E2E/2E/2E | GEGB eBGE | "Bb" B,2B,/2B,/2B, B,2B,2 | DB,DF BFDF |
|  "Eb" E2E/2E/2E E2E/2E/2E | GEGB eBGE | "Bb" Fgfe "F" dcB=A   |1 "Bb" B2B=A B_AGF :|2 "Bb" B2dc B2B2 |]
|: "Eb" (=AB)BB DBBB | "Ab" cded cBAG | "Fm" ABcB AGFE | "Bb" DEFE DB,CD |
| "Eb" E2(DE) "Eb/Db" CEB,E | "Eb/C" E2(DE) "Eb//Cb" CEB,E | "Bb" EcBA GFED |1 "Eb" (F2E2) E2BB :|2 "Eb" (F2E2) E2 |]

